X: 27
T: BROOME, THE BONNY BONNY BROOME
B: "FIFTY OLD ENGLISH FOLK DANCE AIRS", Edgar H. Hunt ed., Schott & Co. Ltd. pub., London 1939
Z: 2004-2014 John Chambers <jc:trillian.mit.edu>
M: 2/2
L: 1/8
K: F
[|\
(c3d) (c3d) | (cB)AG F4 | f2(fg) (ag)fe | d6 e2 |\
(f3g) a2(ga) | f2(FG) (A2GF) | G2G2 (d3B) | G4 |]

%%sep 1 1 500
%%sep 1 1 500
